svgs/light/grid-5.svg

<svg xmlns="http://www.w3.org/2000/svg" viewBox="0 0 448 512"><!--! Font Awesome Pro 6.6.0 by @fontawesome - https://fontawesome.com License - https://fontawesome.com/license (Commercial License) Copyright 2024 Fonticons, Inc. --><path d="M24 56l16 0 0 16L24 72l0-16zM16 32C7.2 32 0 39.2 0 48L0 80c0 8.8 7.2 16 16 16l32 0c8.8 0 16-7.2 16-16l0-32c0-8.8-7.2-16-16-16L16 32zm8 120l16 0 0 16-16 0 0-16zm-8-24c-8.8 0-16 7.2-16 16l0 32c0 8.8 7.2 16 16 16l32 0c8.8 0 16-7.2 16-16l0-32c0-8.8-7.2-16-16-16l-32 0zm8 136l0-16 16 0 0 16-16 0zM0 240l0 32c0 8.8 7.2 16 16 16l32 0c8.8 0 16-7.2 16-16l0-32c0-8.8-7.2-16-16-16l-32 0c-8.8 0-16 7.2-16 16zM24 344l16 0 0 16-16 0 0-16zm-8-24c-8.8 0-16 7.2-16 16l0 32c0 8.8 7.2 16 16 16l32 0c8.8 0 16-7.2 16-16l0-32c0-8.8-7.2-16-16-16l-32 0zm8 136l0-16 16 0 0 16-16 0zM0 432l0 32c0 8.8 7.2 16 16 16l32 0c8.8 0 16-7.2 16-16l0-32c0-8.8-7.2-16-16-16l-32 0c-8.8 0-16 7.2-16 16zM120 56l16 0 0 16-16 0 0-16zm-8-24c-8.8 0-16 7.2-16 16l0 32c0 8.8 7.2 16 16 16l32 0c8.8 0 16-7.2 16-16l0-32c0-8.8-7.2-16-16-16l-32 0zm8 136l0-16 16 0 0 16-16 0zM96 144l0 32c0 8.8 7.2 16 16 16l32 0c8.8 0 16-7.2 16-16l0-32c0-8.8-7.2-16-16-16l-32 0c-8.8 0-16 7.2-16 16zm24 104l16 0 0 16-16 0 0-16zm-8-24c-8.8 0-16 7.2-16 16l0 32c0 8.8 7.2 16 16 16l32 0c8.8 0 16-7.2 16-16l0-32c0-8.8-7.2-16-16-16l-32 0zm8 136l0-16 16 0 0 16-16 0zM96 336l0 32c0 8.8 7.2 16 16 16l32 0c8.8 0 16-7.2 16-16l0-32c0-8.8-7.2-16-16-16l-32 0c-8.8 0-16 7.2-16 16zm24 104l16 0 0 16-16 0 0-16zm-8-24c-8.8 0-16 7.2-16 16l0 32c0 8.8 7.2 16 16 16l32 0c8.8 0 16-7.2 16-16l0-32c0-8.8-7.2-16-16-16l-32 0zM216 72l0-16 16 0 0 16-16 0zM192 48l0 32c0 8.8 7.2 16 16 16l32 0c8.8 0 16-7.2 16-16l0-32c0-8.8-7.2-16-16-16l-32 0c-8.8 0-16 7.2-16 16zm24 104l16 0 0 16-16 0 0-16zm-8-24c-8.8 0-16 7.2-16 16l0 32c0 8.8 7.2 16 16 16l32 0c8.8 0 16-7.2 16-16l0-32c0-8.8-7.2-16-16-16l-32 0zm8 136l0-16 16 0 0 16-16 0zm-24-24l0 32c0 8.8 7.2 16 16 16l32 0c8.8 0 16-7.2 16-16l0-32c0-8.8-7.2-16-16-16l-32 0c-8.8 0-16 7.2-16 16zm24 104l16 0 0 16-16 0 0-16zm-8-24c-8.8 0-16 7.2-16 16l0 32c0 8.8 7.2 16 16 16l32 0c8.8 0 16-7.2 16-16l0-32c0-8.8-7.2-16-16-16l-32 0zm8 136l0-16 16 0 0 16-16 0zm-24-24l0 32c0 8.8 7.2 16 16 16l32 0c8.8 0 16-7.2 16-16l0-32c0-8.8-7.2-16-16-16l-32 0c-8.8 0-16 7.2-16 16zM312 56l16 0 0 16-16 0 0-16zm-8-24c-8.8 0-16 7.2-16 16l0 32c0 8.8 7.2 16 16 16l32 0c8.8 0 16-7.2 16-16l0-32c0-8.8-7.2-16-16-16l-32 0zm8 136l0-16 16 0 0 16-16 0zm-24-24l0 32c0 8.8 7.2 16 16 16l32 0c8.8 0 16-7.2 16-16l0-32c0-8.8-7.2-16-16-16l-32 0c-8.8 0-16 7.2-16 16zm24 104l16 0 0 16-16 0 0-16zm-8-24c-8.8 0-16 7.2-16 16l0 32c0 8.8 7.2 16 16 16l32 0c8.8 0 16-7.2 16-16l0-32c0-8.8-7.2-16-16-16l-32 0zm8 136l0-16 16 0 0 16-16 0zm-24-24l0 32c0 8.8 7.2 16 16 16l32 0c8.8 0 16-7.2 16-16l0-32c0-8.8-7.2-16-16-16l-32 0c-8.8 0-16 7.2-16 16zm24 104l16 0 0 16-16 0 0-16zm-8-24c-8.8 0-16 7.2-16 16l0 32c0 8.8 7.2 16 16 16l32 0c8.8 0 16-7.2 16-16l0-32c0-8.8-7.2-16-16-16l-32 0zM408 72l0-16 16 0 0 16-16 0zM384 48l0 32c0 8.8 7.2 16 16 16l32 0c8.8 0 16-7.2 16-16l0-32c0-8.8-7.2-16-16-16l-32 0c-8.8 0-16 7.2-16 16zm24 104l16 0 0 16-16 0 0-16zm-8-24c-8.8 0-16 7.2-16 16l0 32c0 8.8 7.2 16 16 16l32 0c8.8 0 16-7.2 16-16l0-32c0-8.8-7.2-16-16-16l-32 0zm8 136l0-16 16 0 0 16-16 0zm-24-24l0 32c0 8.8 7.2 16 16 16l32 0c8.8 0 16-7.2 16-16l0-32c0-8.8-7.2-16-16-16l-32 0c-8.8 0-16 7.2-16 16zm24 104l16 0 0 16-16 0 0-16zm-8-24c-8.8 0-16 7.2-16 16l0 32c0 8.8 7.2 16 16 16l32 0c8.8 0 16-7.2 16-16l0-32c0-8.8-7.2-16-16-16l-32 0zm8 136l0-16 16 0 0 16-16 0zm-24-24l0 32c0 8.8 7.2 16 16 16l32 0c8.8 0 16-7.2 16-16l0-32c0-8.8-7.2-16-16-16l-32 0c-8.8 0-16 7.2-16 16z"/></svg>

<svg xmlns="http://www.w3.org/2000/svg" viewBox="0 0 448 512"><!--! Font Awesome Pro 6.4.0 by @fontawesome - https://fontawesome.com License - https://fontawesome.com/license (Commercial License) Copyright 2023 Fonticons, Inc. --><path d="M24 56H40V72H24V56zM16 32C7.2 32 0 39.2 0 48V80c0 8.8 7.2 16 16 16H48c8.8 0 16-7.2 16-16V48c0-8.8-7.2-16-16-16H16zm8 120H40v16H24V152zm-8-24c-8.8 0-16 7.2-16 16v32c0 8.8 7.2 16 16 16H48c8.8 0 16-7.2 16-16V144c0-8.8-7.2-16-16-16H16zm8 136V248H40v16H24zM0 240v32c0 8.8 7.2 16 16 16H48c8.8 0 16-7.2 16-16V240c0-8.8-7.2-16-16-16H16c-8.8 0-16 7.2-16 16zM24 344H40v16H24V344zm-8-24c-8.8 0-16 7.2-16 16v32c0 8.8 7.2 16 16 16H48c8.8 0 16-7.2 16-16V336c0-8.8-7.2-16-16-16H16zm8 136V440H40v16H24zM0 432v32c0 8.8 7.2 16 16 16H48c8.8 0 16-7.2 16-16V432c0-8.8-7.2-16-16-16H16c-8.8 0-16 7.2-16 16zM120 56h16V72H120V56zm-8-24c-8.8 0-16 7.2-16 16V80c0 8.8 7.2 16 16 16h32c8.8 0 16-7.2 16-16V48c0-8.8-7.2-16-16-16H112zm8 136V152h16v16H120zM96 144v32c0 8.8 7.2 16 16 16h32c8.8 0 16-7.2 16-16V144c0-8.8-7.2-16-16-16H112c-8.8 0-16 7.2-16 16zm24 104h16v16H120V248zm-8-24c-8.8 0-16 7.2-16 16v32c0 8.8 7.2 16 16 16h32c8.8 0 16-7.2 16-16V240c0-8.8-7.2-16-16-16H112zm8 136V344h16v16H120zM96 336v32c0 8.8 7.2 16 16 16h32c8.8 0 16-7.2 16-16V336c0-8.8-7.2-16-16-16H112c-8.8 0-16 7.2-16 16zm24 104h16v16H120V440zm-8-24c-8.8 0-16 7.2-16 16v32c0 8.8 7.2 16 16 16h32c8.8 0 16-7.2 16-16V432c0-8.8-7.2-16-16-16H112zM216 72V56h16V72H216zM192 48V80c0 8.8 7.2 16 16 16h32c8.8 0 16-7.2 16-16V48c0-8.8-7.2-16-16-16H208c-8.8 0-16 7.2-16 16zm24 104h16v16H216V152zm-8-24c-8.8 0-16 7.2-16 16v32c0 8.8 7.2 16 16 16h32c8.8 0 16-7.2 16-16V144c0-8.8-7.2-16-16-16H208zm8 136V248h16v16H216zm-24-24v32c0 8.8 7.2 16 16 16h32c8.8 0 16-7.2 16-16V240c0-8.8-7.2-16-16-16H208c-8.8 0-16 7.2-16 16zm24 104h16v16H216V344zm-8-24c-8.8 0-16 7.2-16 16v32c0 8.8 7.2 16 16 16h32c8.8 0 16-7.2 16-16V336c0-8.8-7.2-16-16-16H208zm8 136V440h16v16H216zm-24-24v32c0 8.8 7.2 16 16 16h32c8.8 0 16-7.2 16-16V432c0-8.8-7.2-16-16-16H208c-8.8 0-16 7.2-16 16zM312 56h16V72H312V56zm-8-24c-8.8 0-16 7.2-16 16V80c0 8.8 7.2 16 16 16h32c8.8 0 16-7.2 16-16V48c0-8.8-7.2-16-16-16H304zm8 136V152h16v16H312zm-24-24v32c0 8.8 7.2 16 16 16h32c8.8 0 16-7.2 16-16V144c0-8.8-7.2-16-16-16H304c-8.8 0-16 7.2-16 16zm24 104h16v16H312V248zm-8-24c-8.8 0-16 7.2-16 16v32c0 8.8 7.2 16 16 16h32c8.8 0 16-7.2 16-16V240c0-8.8-7.2-16-16-16H304zm8 136V344h16v16H312zm-24-24v32c0 8.8 7.2 16 16 16h32c8.8 0 16-7.2 16-16V336c0-8.8-7.2-16-16-16H304c-8.8 0-16 7.2-16 16zm24 104h16v16H312V440zm-8-24c-8.8 0-16 7.2-16 16v32c0 8.8 7.2 16 16 16h32c8.8 0 16-7.2 16-16V432c0-8.8-7.2-16-16-16H304zM408 72V56h16V72H408zM384 48V80c0 8.8 7.2 16 16 16h32c8.8 0 16-7.2 16-16V48c0-8.8-7.2-16-16-16H400c-8.8 0-16 7.2-16 16zm24 104h16v16H408V152zm-8-24c-8.8 0-16 7.2-16 16v32c0 8.8 7.2 16 16 16h32c8.8 0 16-7.2 16-16V144c0-8.8-7.2-16-16-16H400zm8 136V248h16v16H408zm-24-24v32c0 8.8 7.2 16 16 16h32c8.8 0 16-7.2 16-16V240c0-8.8-7.2-16-16-16H400c-8.8 0-16 7.2-16 16zm24 104h16v16H408V344zm-8-24c-8.8 0-16 7.2-16 16v32c0 8.8 7.2 16 16 16h32c8.8 0 16-7.2 16-16V336c0-8.8-7.2-16-16-16H400zm8 136V440h16v16H408zm-24-24v32c0 8.8 7.2 16 16 16h32c8.8 0 16-7.2 16-16V432c0-8.8-7.2-16-16-16H400c-8.8 0-16 7.2-16 16z"/></svg>
